svg/misc/speech.svg

<svg width="544" height="512" viewBox="0 0 544 512" version="1.1" xmlns="http://www.w3.org/2000/svg"><path fill="currentColor" d="M383.215,43.082c6.628,-11.479 21.306,-15.412 32.785,-8.785c48.293,27.883 84.065,69.124 105.343,116.361c15.399,34.002 22.756,69.954 22.7,105.505c0.01,35.358 -7.312,71.104 -22.587,104.928c-21.264,47.342 -57.077,88.68 -105.456,116.611c-11.479,6.628 -26.157,2.695 -32.784,-8.784c-6.628,-11.479 -2.695,-26.157 8.784,-32.785c32.428,-18.722 57.907,-44.857 75.533,-75.029c0.189,-0.371 0.39,-0.739 0.6,-1.104c3.532,-6.118 6.718,-12.34 9.564,-18.645c11.994,-26.715 18.286,-55.782 18.338,-85.187c-0.004,-29.615 -6.339,-58.896 -18.455,-85.784c-2.816,-6.216 -5.963,-12.351 -9.446,-18.384c-0.209,-0.362 -0.408,-0.728 -0.596,-1.096c-17.626,-30.175 -43.107,-56.313 -75.538,-75.037c-11.479,-6.628 -15.412,-21.306 -8.785,-32.785Zm-207.215,436.918l-176,0l0,-448l132.857,0.43c42.92,0.139 80.533,28.751 92.123,70.077l46.321,165.173c2.851,10.165 -4.751,20.244 -15.405,20.32l-15.896,0l0,64c0,17.636 -14.267,31.939 -32,32l-32,0l0,96Zm192,-362.564c-11.479,-6.627 -26.157,-2.694 -32.785,8.785c-6.627,11.479 -2.694,26.157 8.785,32.784c17.397,10.044 31.08,24.051 40.567,40.222c0.137,0.259 0.28,0.517 0.428,0.773c1.884,3.263 3.585,6.581 5.106,9.943c6.505,14.452 9.909,30.187 9.918,46.103c-0.022,15.858 -3.414,31.536 -9.887,45.942c-1.529,3.385 -3.24,6.727 -5.137,10.012c-0.149,0.257 -0.292,0.516 -0.43,0.776c-9.487,16.17 -23.169,30.176 -40.565,40.219c-11.479,6.627 -15.412,21.306 -8.785,32.785c6.628,11.479 21.306,15.412 32.785,8.784c30.226,-17.451 52.605,-43.275 65.896,-72.851c9.564,-21.166 14.145,-43.537 14.131,-65.664c0.027,-22.185 -4.564,-44.618 -14.165,-65.837c-13.296,-29.545 -35.662,-55.34 -65.862,-72.776Zm-48,83.138c-11.479,-6.627 -26.157,-2.694 -32.785,8.785c-6.627,11.479 -2.694,26.157 8.785,32.784c2.452,1.416 4.387,3.382 5.74,5.653c0.039,0.068 0.077,0.136 0.117,0.204c0.265,0.46 0.505,0.927 0.72,1.401c0.941,2.083 1.431,4.353 1.426,6.648c-0.009,2.234 -0.487,4.443 -1.392,6.475c-0.224,0.499 -0.475,0.992 -0.755,1.476c-0.04,0.07 -0.08,0.14 -0.119,0.21c-1.353,2.268 -3.287,4.232 -5.737,5.646c-11.479,6.628 -15.412,21.306 -8.785,32.785c6.628,11.479 21.306,15.412 32.785,8.785c12.103,-6.988 21.061,-17.332 26.375,-29.178c3.809,-8.443 5.636,-17.364 5.636,-26.188c0.016,-8.893 -1.822,-17.887 -5.674,-26.392c-5.319,-11.811 -14.263,-22.123 -26.337,-29.094Zm-144,-40.574c0,-17.673 -14.327,-32 -32,-32c-17.673,0 -32,14.327 -32,32c0,17.673 14.327,32 32,32c17.673,0 32,-14.327 32,-32Z"></path></svg>

<svg width="544" height="512" viewBox="0 0 544 512" fill="none" xmlns="http://www.w3.org/2000/svg">
<g clip-path="url(#clip0)">
<path d="M383.215 43.082C389.843 31.603 404.521 27.67 416 34.2974C464.293 62.1796 500.065 103.421 521.343 150.658C536.742 184.66 544.099 220.612 544.043 256.163C544.053 291.521 536.731 327.267 521.456 361.091C500.192 408.433 464.379 449.771 416 477.702C404.521 484.33 389.843 480.397 383.216 468.918C376.588 457.439 380.521 442.761 392 436.133C424.428 417.411 449.907 391.276 467.533 361.104C467.722 360.733 467.923 360.365 468.133 360C471.665 353.882 474.851 347.66 477.697 341.355C489.691 314.64 495.983 285.573 496.035 256.168C496.031 226.553 489.696 197.272 477.58 170.384C474.764 164.168 471.617 158.033 468.134 152C467.925 151.638 467.726 151.272 467.538 150.904C449.912 120.729 424.431 94.5905 392 75.8666C380.521 69.2392 376.588 54.561 383.215 43.082Z" fill="black"/>
<path d="M368 117.436C356.521 110.809 341.843 114.742 335.215 126.221C328.588 137.7 332.521 152.378 344 159.005C361.397 169.049 375.08 183.056 384.567 199.227C384.704 199.486 384.847 199.744 384.995 200C386.879 203.263 388.58 206.581 390.101 209.943C396.606 224.395 400.01 240.13 400.019 256.046C399.997 271.904 396.605 287.582 390.132 301.988C388.603 305.373 386.892 308.715 384.995 312C384.846 312.257 384.703 312.516 384.565 312.776C375.078 328.946 361.396 342.952 344 352.995C332.521 359.622 328.588 374.301 335.215 385.78C341.843 397.259 356.521 401.192 368 394.564C398.226 377.113 420.605 351.289 433.896 321.713C443.46 300.547 448.041 278.176 448.027 256.049C448.054 233.864 443.463 211.431 433.862 190.212C420.566 160.667 398.2 134.872 368 117.436Z" fill="black"/>
<path d="M320 200.574C308.521 193.947 293.843 197.88 287.215 209.359C280.588 220.838 284.521 235.516 296 242.143C298.452 243.559 300.387 245.525 301.74 247.796C301.779 247.864 301.817 247.932 301.857 248C302.122 248.46 302.362 248.927 302.577 249.401C303.518 251.484 304.008 253.754 304.003 256.049C303.994 258.283 303.516 260.492 302.611 262.524C302.387 263.023 302.136 263.516 301.856 264C301.816 264.07 301.776 264.14 301.737 264.21C300.384 266.478 298.45 268.442 296 269.856C284.521 276.484 280.588 291.162 287.215 302.641C293.843 314.12 308.521 318.053 320 311.426C332.103 304.438 341.061 294.094 346.375 282.248C350.184 273.805 352.011 264.884 352.011 256.06C352.027 247.167 350.189 238.173 346.337 229.668C341.018 217.857 332.074 207.545 320 200.574Z" fill="black"/>
<path fill-rule="evenodd" clip-rule="evenodd" d="M132.857 32.4301L0 32V480H176V384H208C225.673 384 240 369.673 240 352V288H255.896C266.493 288 274.163 277.883 271.301 267.68L224.98 102.507C213.39 61.1809 175.777 32.569 132.857 32.4301ZM176 160C176 177.673 161.673 192 144 192C126.327 192 112 177.673 112 160C112 142.327 126.327 128 144 128C161.673 128 176 142.327 176 160Z" fill="black"/>
</g>
<defs>
<clipPath id="clip0">
<rect width="544" height="512" fill="white"/>
</clipPath>
</defs>
</svg>
